packages/icons/src/banknote.svg

<svg width="24" height="24" viewBox="0 0 24 24" fill="none" xmlns="http://www.w3.org/2000/svg">
<path fill-rule="evenodd" clip-rule="evenodd" d="M23 5V19H1V5H23ZM21 7H3V17H21V7ZM12 9C13.6569 9 15 10.3431 15 12C15 13.6569 13.6569 15 12 15C10.3431 15 9 13.6569 9 12C9 10.3431 10.3431 9 12 9ZM12 11C11.4477 11 11 11.4477 11 12C11 12.5523 11.4477 13 12 13C12.5523 13 13 12.5523 13 12C13 11.4477 12.5523 11 12 11ZM19 11V13H17V11H19ZM7 11V13H5V11H7Z" fill="black"/>
</svg>

<svg xmlns="http://www.w3.org/2000/svg" width="24" height="24" fill="none" viewBox="0 0 24 24">
  <path fill="#000" fill-rule="evenodd" d="M23 5v14H1V5h22Zm-2 2H3v10h18V7Zm-9 2a3 3 0 1 1 0 6 3 3 0 0 1 0-6Zm0 2a1 1 0 1 0 0 2 1 1 0 0 0 0-2Zm7 0v2h-2v-2h2ZM7 11v2H5v-2h2Z" clip-rule="evenodd"/>
</svg>
